svgs/regular/bowl-hot.svg

<svg xmlns="http://www.w3.org/2000/svg" viewBox="0 0 512 512"><!--! Font Awesome Pro 6.3.0 by @fontawesome - https://fontawesome.com License - https://fontawesome.com/license (Commercial License) Copyright 2023 Fonticons, Inc. --><path d="M152 0c13.3 0 24 10.7 24 24v8c0 17.6 8.3 34.2 22.4 44.8C224.6 96.4 240 127.3 240 160v8c0 13.3-10.7 24-24 24s-24-10.7-24-24v-8c0-17.6-8.3-34.2-22.4-44.8C143.4 95.6 128 64.7 128 32V24c0-13.3 10.7-24 24-24zm-.5 432.5c11.5 5.2 20.4 14.7 25 26.4c1.2 3.1 4.2 5.1 7.5 5.1H328c3.3 0 6.3-2 7.5-5.1c4.5-11.7 13.5-21.2 25-26.4C421.6 404.8 464 343.3 464 272H48c0 71.3 42.4 132.8 103.5 160.5zM0 272c0-26.5 21.5-48 48-48H464c26.5 0 48 21.5 48 48c0 90.8-54.1 169-131.7 204.2c-8.1 21-28.4 35.8-52.3 35.8H184c-23.8 0-44.2-14.9-52.3-35.8C54.1 441 0 362.8 0 272zM304 24v8c0 17.6 8.3 34.2 22.4 44.8C352.6 96.4 368 127.3 368 160v8c0 13.3-10.7 24-24 24s-24-10.7-24-24v-8c0-17.6-8.3-34.2-22.4-44.8C271.4 95.6 256 64.7 256 32V24c0-13.3 10.7-24 24-24s24 10.7 24 24z"/></svg>

<svg xmlns="http://www.w3.org/2000/svg" viewBox="0 0 512 512"><!--! Font Awesome Pro 6.2.0 by @fontawesome - https://fontawesome.com License - https://fontawesome.com/license (Commercial License) Copyright 2022 Fonticons, Inc. --><path d="M152 0C165.3 0 176 10.75 176 24V32C176 49.63 184.3 66.22 198.4 76.8C224.6 96.44 240 127.3 240 160V168C240 181.3 229.3 192 216 192C202.7 192 192 181.3 192 168V160C192 142.4 183.7 125.8 169.6 115.2C143.4 95.56 128 64.73 128 32V24C128 10.75 138.7 0 152 0zM0 272C0 245.5 21.49 224 48 224H464C490.5 224 512 245.5 512 272C512 362.8 457.9 441 380.3 476.2C372.2 497.1 351.8 512 328 512H184C160.2 512 139.8 497.1 131.7 476.2C54.05 441 0 362.8 0 272V272zM151.5 432.5C163 437.6 171.1 447.1 176.5 458.9C177.7 461.1 180.7 464 184 464H328C331.3 464 334.3 461.1 335.5 458.9C340 447.1 348.1 437.6 360.5 432.5C421.6 404.8 464 343.3 464 272H48C48 343.3 90.39 404.8 151.5 432.5V432.5zM304 32C304 49.63 312.3 66.22 326.4 76.8C352.6 96.44 368 127.3 368 160V168C368 181.3 357.3 192 344 192C330.7 192 320 181.3 320 168V160C320 142.4 311.7 125.8 297.6 115.2C271.4 95.56 256 64.73 256 32V24C256 10.75 266.7 0 280 0C293.3 0 304 10.75 304 24V32z"/></svg>
